packages/assets/static/images/icons/youtube-logo.svg

<svg width="24" height="24" viewBox="0 0 24 24" xmlns="http://www.w3.org/2000/svg" fill="currentColor" aria-hidden="true"> <path d="M16.4834 11.0541L11.2334 7.67906C11.0635 7.56981 10.8673 7.50832 10.6654 7.50106C10.4635 7.4938 10.2634 7.54104 10.0861 7.6378C9.90878 7.73457 9.76077 7.87731 9.65764 8.05101C9.55451 8.22472 9.50006 8.42299 9.5 8.625V15.375C9.50006 15.577 9.55451 15.7753 9.65764 15.949C9.76077 16.1227 9.90878 16.2654 10.0861 16.3622C10.2634 16.459 10.4635 16.5062 10.6654 16.4989C10.8673 16.4917 11.0635 16.4302 11.2334 16.3209L16.4834 12.9459C16.6417 12.844 16.7719 12.704 16.8621 12.5388C16.9522 12.3735 16.9995 12.1883 16.9995 12C16.9995 11.8117 16.9522 11.6265 16.8621 11.4612C16.7719 11.296 16.6417 11.156 16.4834 11.0541ZM11.75 13.3125V10.6875L13.7947 12L11.75 13.3125ZM22.8322 6.42188C22.7286 6.01846 22.5307 5.64542 22.2548 5.33346C21.9788 5.02149 21.6328 4.77953 21.245 4.6275C17.975 3.36656 12.8084 3.375 12.5 3.375C12.1916 3.375 7.025 3.36656 3.755 4.62938C3.36725 4.78141 3.02115 5.02337 2.74521 5.33533C2.46927 5.64729 2.27137 6.02034 2.16781 6.42375C1.92031 7.38 1.625 9.12375 1.625 12C1.625 14.8763 1.92031 16.62 2.16781 17.5763C2.27137 17.9797 2.46927 18.3527 2.74521 18.6647C3.02115 18.9766 3.36725 19.2186 3.755 19.3706C6.89469 20.5828 11.7838 20.625 12.4409 20.625H12.5591C13.2153 20.625 18.1053 20.5828 21.245 19.3706C21.6328 19.2186 21.9788 18.9766 22.2548 18.6647C22.5307 18.3527 22.7286 17.9797 22.8322 17.5763C23.0797 16.62 23.375 14.8763 23.375 12C23.375 9.12375 23.0797 7.38 22.8322 6.42375V6.42188ZM20.6562 17.0119C20.6427 17.0694 20.6158 17.1229 20.5777 17.168C20.5396 17.2131 20.4913 17.2486 20.4369 17.2716C17.6356 18.3525 12.9003 18.375 12.53 18.375H12.4934C12.4438 18.375 7.46469 18.3909 4.56594 17.2716C4.51098 17.249 4.46217 17.2137 4.42354 17.1685C4.38491 17.1234 4.35756 17.0697 4.34375 17.0119C4.1675 16.3331 3.875 14.7788 3.875 12C3.875 9.22125 4.17031 7.66688 4.34375 6.98813C4.35728 6.93062 4.3842 6.87712 4.42232 6.832C4.46044 6.78687 4.50869 6.75139 4.56313 6.72844C7.46469 5.60906 12.4428 5.625 12.4925 5.625H12.5066C12.5572 5.625 17.5353 5.60906 20.4341 6.72844C20.489 6.75102 20.5378 6.78635 20.5765 6.8315C20.6151 6.87665 20.6424 6.93033 20.6562 6.98813C20.8325 7.66688 21.125 9.22125 21.125 12C21.125 14.7788 20.8297 16.3331 20.6562 17.0119Z"/> </svg>

<svg viewBox="0 0 24 24" xmlns="http://www.w3.org/2000/svg" aria-hidden="true" fill="currentColor"><path d="m16.483 11.054-5.25-3.375a1.125 1.125 0 0 0-1.733.946v6.75a1.125 1.125 0 0 0 1.733.946l5.25-3.375a1.126 1.126 0 0 0 0-1.892m-4.733 2.258v-2.624L13.795 12zm11.082-6.89a2.63 2.63 0 0 0-1.587-1.794c-3.27-1.261-8.437-1.253-8.745-1.253s-5.475-.008-8.745 1.254a2.63 2.63 0 0 0-1.587 1.795c-.248.956-.543 2.7-.543 5.576s.295 4.62.543 5.576a2.63 2.63 0 0 0 1.587 1.795c3.14 1.212 8.029 1.254 8.686 1.254h.118c.656 0 5.546-.042 8.686-1.254a2.63 2.63 0 0 0 1.587-1.795c.248-.956.543-2.7.543-5.576s-.295-4.62-.543-5.576zm-2.176 10.59a.38.38 0 0 1-.22.26c-2.8 1.08-7.536 1.103-7.906 1.103h-.037c-.05 0-5.028.016-7.927-1.103a.38.38 0 0 1-.222-.26c-.176-.679-.469-2.233-.469-5.012s.295-4.333.469-5.012a.38.38 0 0 1 .22-.26c2.9-1.119 7.879-1.103 7.929-1.103h.014c.05 0 5.028-.016 7.927 1.103a.38.38 0 0 1 .222.26c.177.679.469 2.233.469 5.012s-.295 4.333-.469 5.012"/></svg>
